truck-minus.svg

<svg fill="currentColor" viewBox="0 0 24 24"><path d="M20 8h-3V4H3c-1.11 0-2 .89-2 2v11h2c0 1.66 1.34 3 3 3s3-1.34 3-3h6c0 1.66 1.34 3 3 3s3-1.34 3-3h2v-5zM6 18.5c-.83 0-1.5-.67-1.5-1.5s.67-1.5 1.5-1.5 1.5.67 1.5 1.5-.67 1.5-1.5 1.5m7-7.5H5V9h8zm5 7.5c-.83 0-1.5-.67-1.5-1.5s.67-1.5 1.5-1.5 1.5.67 1.5 1.5-.67 1.5-1.5 1.5M17 12V9.5h2.5l1.96 2.5z"/></svg>

<svg  viewBox="0 0 24 24" fill="currentColor"><path  d="M20 8H17V4H3C1.89 4 1 4.89 1 6V17H3C3 18.66 4.34 20 6 20S9 18.66 9 17H15C15 18.66 16.34 20 18 20S21 18.66 21 17H23V12L20 8M6 18.5C5.17 18.5 4.5 17.83 4.5 17S5.17 15.5 6 15.5 7.5 16.17 7.5 17 6.83 18.5 6 18.5M13 11H5V9H13V11M18 18.5C17.17 18.5 16.5 17.83 16.5 17S17.17 15.5 18 15.5 19.5 16.17 19.5 17 18.83 18.5 18 18.5M17 12V9.5H19.5L21.46 12H17"/></svg>
